X: 11
I: linebreak $
T: Posten's Jig
P: 
C: Traditional
C: 
N: 
N: 
K: G major
M: 6/8
L: 1/8
P: A
 |: "^Old Maid at the Spinning Wheel"D | "G"GFG B2G | "G"BcA B2D | "G"GFG BAG | "D"F2G AFD | "G"GFG B2G | "G"BcA B2g | 
"D"fed cAF | "G"GAG G2 :: 
P: B
c | "G"BAG "D"AFD | "D"DED AFD | "D"DF/E/D AFD | "C"EFG "D"ABc | 
"G"BAG "D"AFD | "D"DED AFD | "D"ded cAF | "G"GAG G2 :: 
P: C
D | "G"GBd gba | "G"gdB "C"ecA | 
"G"dBG "C"cAG | "D"F2G AFD | "G"GBd gba | "G"gdB "C"ecA | "D"fed cAF | "G"GAG G2 :| 
P: D
"^Ballykeale"c |: 
A=FA A2c | A=FA Adc | BGG DGG | BGB dcB | A=FA A2c | A=FA A2a | 
bag fdc |  [1 BGB dcB :|]  [2 BGF GBd :: 
P: E
g3 gag | fde fd^c | dgg gag | 
fd^c def | g2a bag | fde fga | bag fdc |  [1 BGF GBd :|]  [2 BGB dcB |] 


